X: 118103
T: CUTTING FERNS
Q: "Strathspey."
R:  Strathspey.
%R: strathspey
B: James Kerr "Merry Melodies" v.1 p.18 s.1 #3
Z: 2017 John Chambers <jc:trillian.mit.edu>
M: C
L: 1/8
K: Am
uB |\
A<A a2 (g<e) g2 | ue>udvB>vA uG>uA B<G |\
A<A a2 (g<e) g2 | ue>ud B<g B<A A :|\
ug |\
ve>vduB>uA G>AB>G | e>dB>A B2(B<g) |
e>dB>A G>AB>d | e>d (g<B) A2- Ag |\
e>dB>A G>AB>G | e>dB>A B2(B<g) |\
e>dB>A G>AB>d | e>d (g<B) A2- A |]

%%sep 1 1 500
%%sep 1 1 500

